www/assets/icons/cell_wifi.svg

<svg width="24" height="24" viewBox="0 0 24 24" xmlns="http://www.w3.org/2000/svg" fill='currentColor'><path d="M5.03503 21.5013H21.035V5.47128L5.03503 21.5013ZM19.035 19.5013H17.035V12.2813L19.035 10.2813V19.5013ZM4.25503 6.72128L2.96503 5.43128C6.86503 1.52128 13.205 1.52128 17.115 5.43128L15.825 6.72128C12.635 3.53128 7.44503 3.53128 4.25503 6.72128ZM11.965 10.5713L10.035 12.5013L8.10503 10.5713C9.17503 9.51128 10.895 9.51128 11.965 10.5713ZM13.255 9.29128C11.475 7.52128 8.59503 7.52128 6.82503 9.29128L5.53503 8.00128C8.01503 5.52128 12.055 5.52128 14.535 8.00128L13.255 9.29128Z"/></svg>

<svg xmlns="http://www.w3.org/2000/svg" width="24" height="24" viewBox="0 0 24 24" fill='currentColor'><path d="M5.035 21.501h16V5.471zm14-2h-2v-7.22l2-2zM4.255 6.721l-1.29-1.29c3.9-3.91 10.24-3.91 14.15 0l-1.29 1.29c-3.19-3.19-8.38-3.19-11.57 0m7.71 3.85-1.93 1.93-1.93-1.93a2.74 2.74 0 0 1 3.86 0m1.29-1.28c-1.78-1.77-4.66-1.77-6.43 0l-1.29-1.29a6.374 6.374 0 0 1 9 0z"/></svg>
